X:107
T:The golden keyboard
R:Reel
S:Richard Darsie's web page
Z:Transcription, chords:Mike Long
M:C|
L:1/8
K:D
"Em"BGEF "G"GFGA|"Em"BG gG fG eG|"Em"BGEF "G"GBAG|"D"FD AD BD AD|\
"Em"EDEF GFGA|
"G"BG gG fG eG|"D"~d2ce dBAF|"Bm"DFAF "Em"GEE2:|\
|:"Em"Beed Beed|"Em"Beef "G"edBc|"D"dA~A2 "A"fAce|
"D"~d2ce "Bm"dBAF|\
"Em"EDEF GFGA|"G"BG gG fG eG|"D"~d2ce "Bm"dBAF|"D"DFAF "Em"GEE2:|
